X:1
T:Some Day He’ll Make It Plain
T:Adam Geibel
T:Some Day He’ll Make It Plain
T:Public Domain
T:Public Domain
C:Adam Geibel
Z:Public Domain
%%score ( 1 2 ) ( 3 4 )
L:1/8
M:3/4
K:Ab
V:1 treble 
V:2 treble 
V:3 bass 
V:4 bass 
V:1
 E=D E | (z [CE] [CE])F AF | z [B,D] [B,D]E =DE | z [B,D] [B,D]E GE | z [A,C] [A,C] | E=D E | %6
w: 1.~I do not|* * know why oft|* * me My hopes|* * shat- tered seem||* God’s per-|
w: 2.~I can- not|* * tell the depth|* * love, Which moves|* * Fa- ther’s heart||* My faith|
w: 3.~Tho’ tri- als|* * come thro’ pass-|* * days, My life|* * still be filled||* For God|
 (z [E=A] [EA])d cA | (z [DF] [DF][DF] [DFd])F | F([B,=D] [B,D])[B,DF] [B,DG][B,DA] | %9
w: * * fect plan I|* * * * not|But some * day I’ll un-|
w: * * to test, my|* * * * to|But some * day I’ll un-|
w: * * will lead thro’|* * * * ened|But some * day I’ll un-|
 (z [DE] [DG][DF] [DE]2) ||"^Refrain" [Ec] [Ec]2 [CA] [CE][=B,=D] | [B,D]>[Ec] [DB]3 z | %12
w: |||
w: |||
w: |||
 [DB] [DB]2 [DG] [B,E][B,D] | [A,C]>[CB] [CA]3 z | [_GA] [GA]2 [GA] [GB][Gc] | [FB]>[DF] [DF]A GF | %16
w: ||||
w: ||||
w: ||||
 E[Ec] [Gd]2 [EG]2 | [EA]3 |] %18
w: ||
w: ||
w: ||
V:2
 x3 | A3 x3 | G3 x3 | G3 x3 | F3 | x3 | c3 x3 | d4- x2 | F2 x4 | B6 || x6 | x6 | x6 | x6 | x6 | %15
w: |’round|all|to|be;||can-|see,|der-|stand.||||||
w: |of|the|a-|bove;||love|prove,|der-|stand.||||||
w: |ing|will|with|praise;||dark-|ways,|der-|stand.||||||
 x3 A GF | E x5 | x3 |] %18
w: |||
w: |||
w: |||
V:3
 E,=D, E, | [A,,B,]3 F, A,F, | [B,,G,]3 E, =D,E, | [E,G,]3 E, G,E, | [A,,F,]3 | E,=D, E, | %6
w: ~ ~ ~|~ ~ ~ ~|~ ~ ~ ~|~ ~ ~ ~|~|~ ~ ~|
 [F,C]3 D C=A, | [B,,B,]4- [B,,B,]F, | F, F,2 F, G,A, | (z G, B,A, G,2) || %10
w: ~ ~ ~ ~|~ * ~|~ ~ ~ ~ ~||
 [A,,A,] [A,,A,]2 [A,,A,] [A,,A,][A,,A,] | [E,G,]>[E,G,] [E,G,]3 z | %12
w: * day He’ll make it|plain to me,|
 [E,G,] [E,G,]2 [E,B,] [E,G,][E,G,] | [A,,E,]>[A,,E,] [A,,E,]3 z | [A,C] [A,C]2 [A,C] [A,D][A,E] | %15
w: Some day when I His|face shall see;|Some day from tears I|
 [D,D]>[D,A,] [D,A,]A, G,F, | E,[E,A,] [E,B,]2 [E,D]2 | [A,,C]3 |] %18
w: shall be free, For some day|der- stand. * *||
V:4
 x3 | x6 | x6 | x6 | x3 | x3 | x6 | x6 | B,,6 | E,6 || x6 | x6 | x6 | x6 | x6 | x3 A, G,F, | %16
w: ||||||||~|Some||||||I shall un-|
 E, x5 | x3 |] %18
w: ||

